!!!!SEGMENT: pl-kk--kk-i-329--012_costanzi-giovanni-battista--confitebor-amen.krn
!!!cenid: 17xx:1931
!!!COM: Costanzi, Giovanni Battista
!!!COM-rismID: pe20000434
!!!CDT: 1704-1778
!!!CNT: Italian
!!!OPR: Confitebor
!!!OTL: Amen
!!!OMV: 012
!!!PDT:
!!!AGN: Sacred
!!!SMS-siglum: PL-Kk
!!!SMS-shelfmark: Kk.I.329
!!!SMS-shelfwork: 001-012 M
!!!SMS-variant:
!!!SMS-altvar:
!!!NIFC-rismSourceID: 1001143621
!!!NIFC-islandoraID: pl-kk:5543
!!!URL-pdf-islandora: https://repozytorium.nifc.pl/islandora/object/pl-kk%3A5543/datastream/PDF/view
!!!URL-scan: https://polish.musicsources.pl/pl/lokalizacje/galeria/rekopisy/5948 @EN{Scan on Polish Music Herritage in Open Access Website} @PL{Skany w portalu Dziedzictwo Muzyki Polskiej w otwartym dostępie}
!!!ONB-nifc: UWAGA: części Confitebor: 1. Confitebor, 2. Magna opera, 3. Confessio, 4. Memoriam fecit, 5. Memor erit, 6. Fidelia omnia, 7. Redemptionem, 8. Sanctum, 9. Intellectus bonus, 10. Gloria Patri, 11. Sicut erat, 12. Amen
!!!AIN: 2 alto 2 empty 1 organ 1 tenor 2 vox
!!!key:
**kern	**fba	**kern	**text	**kern	**text	**kern	**text	**kern	**text	**kern	**text	**kern	**text	**kern	**text
*part8	*	*part7	*part7	*part6	*part6	*part5	*part5	*part4	*part4	*part3	*part3	*part2	*part2	*part1	*part1
*	*	*group2	*	*group2	*	*group2	*	*group2	*	*group1	*	*group1	*	*group1	*
*staff8	*	*staff7	*staff7	*staff6	*staff6	*staff5	*staff5	*staff4	*staff4	*staff3	*staff3	*staff2	*staff2	*staff1	*staff1
*Iorgan	*	*Iempty	*	*Itenor	*	*Ialto	*	*Ivox	*	*Iempty	*	*Ialto	*	*Ivox	*
*I"Organo	*	*I"Baſso di Ripieno	*	*I"Tenore di Ripieno	*	*I"Alto di Ripieno	*	*I"Canto di Ripieno	*	*I"Baſso di Concerto	*	*I"Alto di Concerto	*	*I"Canto di Concerto.	*
*I'org	*	*I'B rip	*	*I'T rip	*	*I'A rip	*	*I'C rip	*	*I'B conc	*	*I'A conc	*	*I'C conc	*
*clefF4	*	*clefF4	*	*clefC4	*	*clefC3	*	*clefC1	*	*clefF4	*	*clefC3	*	*clefC1	*
*k[]	*	*k[]	*	*k[]	*	*k[]	*	*k[]	*	*k[]	*	*k[]	*	*k[]	*
*C:	*	*C:	*	*C:	*	*C:	*	*C:	*	*C:	*	*C:	*	*C:	*
*M3/4	*	*M3/4	*	*M3/4	*	*M3/4	*	*M3/4	*	*M3/4	*	*M3/4	*	*M3/4	*
=1	=1	=1	=1	=1	=1	=1	=1	=1	=1	=1	=1	=1	=1	=1	=1
!LO:TX:a:t=C.o	!	!LO:TX:b:t=44.	!	!LO:TX:b:t=44.	!	!LO:TX:b:t=44.	!	!LO:TX:b:t=44	!	!	!	!LO:TX:b:t=5	!	!	!
!LO:TX:b:t=amen	!	!	!	!	!	!	!	!	!	!LO:TX:a:t=All.o	!	!LO:TX:a:t=Al.o a 3.e	!	!LO:TX:a:t=All.o	!
!LO:TX:a:t=a 3.e\nAll.o	!	!LO:N:vis=00	!	!LO:N:vis=00	!	!LO:N:vis=00	!	!LO:N:vis=00	!	!	!	!LO:N:vis=00	!	!	!
2.C/	.	0.r	.	0.r	.	0.r	.	0.r	.	2.r	.	0.r	.	8cc\L	a-
.	.	.	.	.	.	.	.	.	.	.	.	.	.	8dd\J	.
.	.	.	.	.	.	.	.	.	.	.	.	.	.	4cc\|	.
.	.	.	.	.	.	.	.	.	.	.	.	.	.	4cc\|	.
=2	=2	=2	=2	=2	=2	=2	=2	=2	=2	=2	=2	=2	=2	=2	=2
*	*	*	*	*	*	*	*	*	*	*2\right	*	*	*	*	*
!LO:TX:a:t=3.o	!	!	!	!	!	!	!	!	!	!	!	!	!	!	!
2C/	.	.	.	.	.	.	.	.	.	2c\	a-	.	.	8cc\L	.
.	.	.	.	.	.	.	.	.	.	.	.	.	.	8b\	.
.	.	.	.	.	.	.	.	.	.	.	.	.	.	8cc\	.
.	.	.	.	.	.	.	.	.	.	.	.	.	.	8dd\	.
4c\	.	.	.	.	.	.	.	.	.	4c\	-men	.	.	8ee\	.
.	.	.	.	.	.	.	.	.	.	.	.	.	.	8ff\J	.
=3	=3	=3	=3	=3	=3	=3	=3	=3	=3	=3	=3	=3	=3	=3	=3
4B\	6	.	.	.	.	.	.	.	.	4B\	a-	.	.	4gg\	.
8A\L	.	.	.	.	.	.	.	.	.	8A\L	.	.	.	4dd\	.
8B\J	.	.	.	.	.	.	.	.	.	8B\J	.	.	.	.	.
4G\	.	.	.	.	.	.	.	.	.	4G\	.	.	.	4ee\	.
!	!	!	!	!	!	!	!	!	!	!LO:LB:g=original	!	!	!	!	!
=4	=4	=4	=4	=4	=4	=4	=4	=4	=4	=4	=4	=4	=4	=4	=4
4A\	n6	.	.	.	.	.	.	.	.	4A\	.	.	.	8ff\L	.
.	.	.	.	.	.	.	.	.	.	.	.	.	.	8ee\	.
*2\right	*	*	*	*	*	*	*	*	*	*	*	*	*	*	*
2B\	.	.	.	.	.	.	.	.	.	2B\	.	.	.	8dd\	.
.	.	.	.	.	.	.	.	.	.	.	.	.	.	8ee\	.
.	.	.	.	.	.	.	.	.	.	.	.	.	.	8ff\	.
.	.	.	.	.	.	.	.	.	.	.	.	.	.	8gg\J	.
!LO:LB:g=original	!	!	!	!	!	!	!	!	!	!	!	!	!	!LO:PB:g=original	!
=5	=5	=5	=5	=5	=5	=5	=5	=5	=5	=5	=5	=5	=5	=5	=5
!	!	!LO:N:vis=00	!	!LO:N:vis=00	!	!LO:N:vis=00	!	!LO:N:vis=00	!	!	!	!	!	!	!
4c\	.	0.r	.	0.r	.	0.r	.	0.r	.	4c\	.	2.r	.	8ee\L	.
.	.	.	.	.	.	.	.	.	.	.	.	.	.	8gg\	.
8C\L	.	.	.	.	.	.	.	.	.	8C/L	.	.	.	8ff\	.
8D\	.	.	.	.	.	.	.	.	.	8D/	.	.	.	8ee\	.
8E\	.	.	.	.	.	.	.	.	.	8E/	.	.	.	8dd\	.
8F\J	.	.	.	.	.	.	.	.	.	8F/J	.	.	.	8cc\J	.
=6	=6	=6	=6	=6	=6	=6	=6	=6	=6	=6	=6	=6	=6	=6	=6
*	*	*	*	*	*	*	*	*	*	*	*	*	*	*2\right	*
!LO:TX:a:t=a.3o	!	!	!	!	!	!	!	!	!	!	!	!	!	!	!
4G\	.	.	.	.	.	.	.	.	.	2G\	-men	8g\L	a-	2.b\	-men
.	.	.	.	.	.	.	.	.	.	.	.	8a\J	.	.	.
4B\	.	.	.	.	.	.	.	.	.	.	.	4g\	.	.	.
4G\	.	.	.	.	.	.	.	.	.	4r	.	4g\	-men	.	.
=7	=7	=7	=7	=7	=7	=7	=7	=7	=7	=7	=7	=7	=7	=7	=7
2.G\	.	.	.	.	.	.	.	.	.	2.G\	a-	8g\L	a-	4r	.
.	.	.	.	.	.	.	.	.	.	.	.	8f#X\	.	.	.
.	.	.	.	.	.	.	.	.	.	.	.	8g\	.	4dd\	a-
.	.	.	.	.	.	.	.	.	.	.	.	8a\	.	.	.
.	.	.	.	.	.	.	.	.	.	.	.	8b\	.	4g\	.
.	.	.	.	.	.	.	.	.	.	.	.	8cc\J	.	.	.
=8	=8	=8	=8	=8	=8	=8	=8	=8	=8	=8	=8	=8	=8	=8	=8
4F#X\	6	.	.	.	.	.	.	.	.	4F#X\	.	4dd\	.	4a\	.
8E\L	.	.	.	.	.	.	.	.	.	8E\L	.	4a\	.	4cc#X\	.
8F#\J	.	.	.	.	.	.	.	.	.	8F#\J	.	.	.	.	.
4D\	.	.	.	.	.	.	.	.	.	4D\	.	4b\	.	4dd\	.
!	!	!	!	!	!	!	!	!	!	!LO:LB:g=original	!	!	!	!	!
=9	=9	=9	=9	=9	=9	=9	=9	=9	=9	=9	=9	=9	=9	=9	=9
!	!	!LO:N:vis=00	!	!LO:N:vis=00	!	!LO:N:vis=00	!	!LO:N:vis=00	!	!	!	!	!	!	!
4E\	6	0.r	.	0.r	.	0.r	.	0.r	.	4E\	.	8cc\L	.	4g\	.
.	.	.	.	.	.	.	.	.	.	.	.	8b\	.	.	.
2F#X\	5	.	.	.	.	.	.	.	.	2F#X\	.	8a\	.	4ccn\	.
.	.	.	.	.	.	.	.	.	.	.	.	8b\	.	.	.
.	.	.	.	.	.	.	.	.	.	.	.	8cc\	.	[4a\	.
.	.	.	.	.	.	.	.	.	.	.	.	8dd\J	.	.	.
!LO:LB:g=original	!	!	!	!	!	!	!	!	!	!	!	!LO:LB:g=original	!	!LO:LB:g=original	!
=10	=10	=10	=10	=10	=10	=10	=10	=10	=10	=10	=10	=10	=10	=10	=10
2.G\	.	.	.	.	.	.	.	.	.	4G\	-men	4b\	.	4a\]	.
.	.	.	.	.	.	.	.	.	.	4r	.	8g\L	.	8g\L	.
.	.	.	.	.	.	.	.	.	.	.	.	8a\	.	8f#X\J	.
.	.	.	.	.	.	.	.	.	.	4r	.	8b\	.	4g\	.
.	.	.	.	.	.	.	.	.	.	.	.	8g\J	.	.	.
=11	=11	=11	=11	=11	=11	=11	=11	=11	=11	=11	=11	=11	=11	=11	=11
*	*	*	*	*	*	*	*	*	*	*	*	*2\right	*	*	*
8c\L	.	.	.	.	.	.	.	.	.	8c\L	a-	2e\	-men	8cc\L	.
8d\J	.	.	.	.	.	.	.	.	.	8d\J	.	.	.	8b\	.
4c\	.	.	.	.	.	.	.	.	.	4c\	.	.	.	8cc\	.
.	.	.	.	.	.	.	.	.	.	.	.	.	.	8dd\	.
4c\	.	.	.	.	.	.	.	.	.	4c\	.	4r	.	8ee\	.
.	.	.	.	.	.	.	.	.	.	.	.	.	.	8ffn\J	.
=12	=12	=12	=12	=12	=12	=12	=12	=12	=12	=12	=12	=12	=12	=12	=12
4c\	.	.	.	.	.	.	.	.	.	4c\	.	4r	.	4gg\	.
8C\L	.	.	.	.	.	.	.	.	.	8C\L	.	4e\	a-	4cc\	.
8D\	.	.	.	.	.	.	.	.	.	8D\	.	.	.	.	.
8E\	.	.	.	.	.	.	.	.	.	8E\	.	4e\	-men	4cc\	.
8F\J	.	.	.	.	.	.	.	.	.	8F\J	.	.	.	.	.
=13	=13	=13	=13	=13	=13	=13	=13	=13	=13	=13	=13	=13	=13	=13	=13
!	!	!LO:N:vis=00	!	!LO:N:vis=00	!	!LO:N:vis=00	!	!LO:N:vis=00	!	!	!	!	!	!	!
4G\	.	0.r	.	0.r	.	0.r	.	0.r	.	4G\	.	4d\	a-	4cc\	.
4GG/	.	.	.	.	.	.	.	.	.	4GG/	-men	4g\	.	8b\L	.
.	.	.	.	.	.	.	.	.	.	.	.	.	.	8a\	.
4G\	.	.	.	.	.	.	.	.	.	4G\	a-	4g\	.	8b\	.
.	.	.	.	.	.	.	.	.	.	.	.	.	.	8g\J	.
!	!	!	!	!	!	!	!	!	!	!LO:PB:g=original	!	!	!	!LO:LB:g=original	!
=14	=14	=14	=14	=14	=14	=14	=14	=14	=14	=14	=14	=14	=14	=14	=14
8A\L	n6	.	.	.	.	.	.	.	.	8A\L	.	4c\	.	2.fn/	.
8G\	.	.	.	.	.	.	.	.	.	8G\	.	.	.	.	.
8F\	.	.	.	.	.	.	.	.	.	8F\	.	4f\	.	.	.
8G\	.	.	.	.	.	.	.	.	.	8G\	.	.	.	.	.
8A\	.	.	.	.	.	.	.	.	.	8A\	.	4c\	.	.	.
8F\J	.	.	.	.	.	.	.	.	.	8F\J	.	.	.	.	.
!LO:LB:g=original	!	!	!	!	!	!	!	!	!	!	!	!	!	!	!
=15	=15	=15	=15	=15	=15	=15	=15	=15	=15	=15	=15	=15	=15	=15	=15
8B\L	6 5	.	.	.	.	.	.	.	.	8B\L	.	4d\	.	2f/	-men
8A\	.	.	.	.	.	.	.	.	.	8A\	.	.	.	.	.
8G\	.	.	.	.	.	.	.	.	.	8G\	.	4g\	.	.	.
8A\	.	.	.	.	.	.	.	.	.	8A\	.	.	.	.	.
8B\	.	.	.	.	.	.	.	.	.	8B\	.	4d\	.	4r	.
8G\J	.	.	.	.	.	.	.	.	.	8G\J	.	.	.	.	.
!	!	!	!	!	!	!	!	!	!	!	!	!LO:LB:g=original	!	!	!
=16	=16	=16	=16	=16	=16	=16	=16	=16	=16	=16	=16	=16	=16	=16	=16
2c\	.	.	.	.	.	.	.	.	.	2c\	.	8e\L	.	8cc\L	[a]-
.	.	.	.	.	.	.	.	.	.	.	.	8f\	.	8b\	.
.	.	.	.	.	.	.	.	.	.	.	.	8e\	.	8cc\	.
.	.	.	.	.	.	.	.	.	.	.	.	8d\J	.	8dd\	.
4C/	.	.	.	.	.	.	.	.	.	4C/	-men	4c\	.	8ee\	.
.	.	.	.	.	.	.	.	.	.	.	.	.	.	8ffn\J	.
=17	=17	=17	=17	=17	=17	=17	=17	=17	=17	=17	=17	=17	=17	=17	=17
!	!	!LO:N:vis=00	!	!LO:N:vis=00	!	!LO:N:vis=00	!	!LO:N:vis=00	!	!	!	!	!	!	!
8G\L	.	0.r	.	0.r	.	0.r	.	0.r	.	8G\L	a-	4r	.	4gg\	.
8F#X\	.	.	.	.	.	.	.	.	.	8F#X\	.	.	.	.	.
8G\	.	.	.	.	.	.	.	.	.	8G\	.	4b\	.	4g\	.
8A\	.	.	.	.	.	.	.	.	.	8A\	.	.	.	.	.
8B\	.	.	.	.	.	.	.	.	.	8B\	.	4g\	.	[4gg\	.
8c\J	.	.	.	.	.	.	.	.	.	8c\J	.	.	.	.	.
!	!	!	!	!	!	!	!	!	!	!LO:LB:g=original	!	!	!	!	!
=18	=18	=18	=18	=18	=18	=18	=18	=18	=18	=18	=18	=18	=18	=18	=18
4d\	.	.	.	.	.	.	.	.	.	4d\	.	2a\	.	4gg\]	.
4D\	4	.	.	.	.	.	.	.	.	4D\	.	.	.	4ff#X\	.
.	#3	.	.	.	.	.	.	.	.	.	.	.	.	.	.
[4d\	.	.	.	.	.	.	.	.	.	[4d\	.	4f#X\	.	4dd\	.
!LO:LB:g=original	!	!	!	!	!	!	!	!	!	!	!	!	!	!LO:LB:g=original	!
=19	=19	=19	=19	=19	=19	=19	=19	=19	=19	=19	=19	=19	=19	=19	=19
!LO:TX:a:t=P:problem=brak zakończenia ligatury	!	!	!	!	!	!	!	!	!	!	!	!	!	!	!
4d\]	2	.	.	.	.	.	.	.	.	4d\]	.	4g\	.	2.ee\	.
8c\L	.	.	.	.	.	.	.	.	.	8c\L	.	4.a\	.	.	.
8B\J	.	.	.	.	.	.	.	.	.	8B\J	.	.	.	.	.
4c\	.	.	.	.	.	.	.	.	.	[4c\	.	.	.	.	.
.	.	.	.	.	.	.	.	.	.	.	.	8g\	.	.	.
=20	=20	=20	=20	=20	=20	=20	=20	=20	=20	=20	=20	=20	=20	=20	=20
4c\	#4	.	.	.	.	.	.	.	.	4c\]	.	4f#X\	.	2.dd\	.
4B\	6	.	.	.	.	.	.	.	.	4B\	.	4g\	.	.	.
4G\	.	.	.	.	.	.	.	.	.	4G\	.	4g\	.	.	.
=21	=21	=21	=21	=21	=21	=21	=21	=21	=21	=21	=21	=21	=21	=21	=21
!	!	!LO:N:vis=00	!	!LO:N:vis=00	!	!LO:N:vis=00	!	!LO:N:vis=00	!	!	!	!	!	!	!
2.D\	4	0.r	.	0.r	.	0.r	.	0.r	.	2.D\	.	4g\	.	2.cc\	.
.	#3	.	.	.	.	.	.	.	.	.	.	8f#X\L	.	.	.
.	.	.	.	.	.	.	.	.	.	.	.	8g\	.	.	.
.	.	.	.	.	.	.	.	.	.	.	.	8a\	.	.	.
.	.	.	.	.	.	.	.	.	.	.	.	8f#\J	.	.	.
!	!	!	!	!	!	!	!	!	!	!	!	!LO:LB:g=original	!	!	!
=22	=22	=22	=22	=22	=22	=22	=22	=22	=22	=22	=22	=22	=22	=22	=22
4G\	.	.	.	.	.	.	.	.	.	4G\	.	4g\	.	4b\	.
4B\	.	.	.	.	.	.	.	.	.	4B\	.	2b\	.	4gg\	.
4G\	.	.	.	.	.	.	.	.	.	4G\	.	.	.	4gg\	.
!	!	!	!	!	!	!	!	!	!	!LO:LB:g=original	!	!	!	!	!
=23	=23	=23	=23	=23	=23	=23	=23	=23	=23	=23	=23	=23	=23	=23	=23
*	*below	*	*	*	*	*	*	*	*	*	*	*	*	*	*
2.A\	9	.	.	.	.	.	.	.	.	2.A\	.	4b\	.	8cc\L	.
.	8	.	.	.	.	.	.	.	.	.	.	.	.	8b\	.
.	.	.	.	.	.	.	.	.	.	.	.	2a\	.	8cc\	.
.	.	.	.	.	.	.	.	.	.	.	.	.	.	8dd\	.
.	.	.	.	.	.	.	.	.	.	.	.	.	.	8ee\	.
.	.	.	.	.	.	.	.	.	.	.	.	.	.	8ff#X\J	.
!LO:LB:g=original	!	!	!	!	!	!	!	!	!	!	!	!	!	!	!
=24	=24	=24	=24	=24	=24	=24	=24	=24	=24	=24	=24	=24	=24	=24	=24
4E\	.	.	.	.	.	.	.	.	.	4E/	.	4g\	.	4gg\	.
4C\	.	.	.	.	.	.	.	.	.	4C/	.	4cc\	.	4g\	.
4C\	.	.	.	.	.	.	.	.	.	4C/	.	4cc\	.	4ee\	.
=25	=25	=25	=25	=25	=25	=25	=25	=25	=25	=25	=25	=25	=25	=25	=25
*	*above	*	*	*	*	*	*	*	*	*	*	*	*	*	*
!	!	!LO:N:vis=00	!	!LO:N:vis=00	!	!LO:N:vis=00	!	!LO:N:vis=00	!	!	!	!	!	!	!
2.D\	n3	0.r	.	0.r	.	0.r	.	0.r	.	2.D\	.	8fn\L	.	4ee\	.
.	.	.	.	.	.	.	.	.	.	.	.	8e\	.	.	.
.	.	.	.	.	.	.	.	.	.	.	.	8f\	.	2dd\	.
.	.	.	.	.	.	.	.	.	.	.	.	8g\	.	.	.
.	.	.	.	.	.	.	.	.	.	.	.	8a\	.	.	.
.	.	.	.	.	.	.	.	.	.	.	.	8b\J	.	.	.
=26	=26	=26	=26	=26	=26	=26	=26	=26	=26	=26	=26	=26	=26	=26	=26
4E\	6	.	.	.	.	.	.	.	.	4E\	.	4cc\	.	4g\	-men
4c\	.	.	.	.	.	.	.	.	.	4c\	.	4g\	.	4r	.
4c\	.	.	.	.	.	.	.	.	.	4c\	.	4cc\	.	4r	.
=27	=27	=27	=27	=27	=27	=27	=27	=27	=27	=27	=27	=27	=27	=27	=27
8G\L	.	.	.	.	.	.	.	.	.	8G\L	.	4cc\	.	4dd\	a-
8F#X\	.	.	.	.	.	.	.	.	.	8F#X\	.	.	.	.	.
8G\	.	.	.	.	.	.	.	.	.	8G\	.	4b\	.	[2gg\	.
8A\	.	.	.	.	.	.	.	.	.	8A\	.	.	.	.	.
8B\	.	.	.	.	.	.	.	.	.	8B\	.	4b\	.	.	.
8c\J	.	.	.	.	.	.	.	.	.	8c\J	.	.	.	.	.
!	!	!	!	!	!	!	!	!	!	!LO:LB:g=original	!	!LO:LB:g=original	!	!LO:LB:g=original	!
=28	=28	=28	=28	=28	=28	=28	=28	=28	=28	=28	=28	=28	=28	=28	=28
4d\	.	.	.	.	.	.	.	.	.	4d\	.	2.a\	.	4gg\]	.
4D\	4	.	.	.	.	.	.	.	.	4D\	.	.	.	4ff#X\	.
.	#3	.	.	.	.	.	.	.	.	.	.	.	.	.	.
4d\	.	.	.	.	.	.	.	.	.	4d\	.	.	.	[4dd\	.
!LO:LB:g=original	!	!	!	!	!	!	!	!	!	!	!	!	!	!	!
=29	=29	=29	=29	=29	=29	=29	=29	=29	=29	=29	=29	=29	=29	=29	=29
!	!	!LO:N:vis=00	!	!LO:N:vis=00	!	!LO:N:vis=00	!	!LO:N:vis=00	!	!	!	!	!	!	!
4e\	.	0.r	.	0.r	.	0.r	.	0.r	.	4e\	.	2g\	.	4dd\]	.
8c\L	.	.	.	.	.	.	.	.	.	8c\L	.	.	.	4g\	.
8d\J	.	.	.	.	.	.	.	.	.	8d\J	.	.	.	.	.
4e\	.	.	.	.	.	.	.	.	.	4e\	.	4e\	.	8cc\L	.
.	.	.	.	.	.	.	.	.	.	.	.	.	.	8b\J	.
=30	=30	=30	=30	=30	=30	=30	=30	=30	=30	=30	=30	=30	=30	=30	=30
4d\	.	.	.	.	.	.	.	.	.	4d\	.	4f#X\	.	4a\	.
4B\	.	.	.	.	.	.	.	.	.	4B\	.	4g\	.	4b\	.
4G\	.	.	.	.	.	.	.	.	.	4G\	.	4b\	.	4dd\	.
=31	=31	=31	=31	=31	=31	=31	=31	=31	=31	=31	=31	=31	=31	=31	=31
4A\	.	.	.	.	.	.	.	.	.	4A\	.	8a\L	.	8cc\L	.
.	.	.	.	.	.	.	.	.	.	.	.	8g\J	.	8b\J	.
!	!	!	!	!	!	!	!	!	!	!LO:SIC:v:s=8DL	!	!	!	!	!
8D\L	.	.	.	.	.	.	.	.	.	8F\L	.	2f#X\	.	2a\	.
!	!	!	!	!	!	!	!	!	!	!LO:SIC:v:s=8E	!	!	!	!	!
8E\	.	.	.	.	.	.	.	.	.	8G\	.	.	.	.	.
!	!	!	!	!	!	!	!	!	!	!LO:SIC:v:s=8F#	!	!	!	!	!
8F#X\	.	.	.	.	.	.	.	.	.	8A#X\	.	.	.	.	.
!	!	!	!	!	!	!	!	!	!	!LO:SIC:v:s=8DJ	!	!	!	!	!
8D\J	.	.	.	.	.	.	.	.	.	8F\J	.	.	.	.	.
!	!	!	!	!	!	!	!	!	!	!LO:LB:g=original	!	!	!	!	!
=32	=32	=32	=32	=32	=32	=32	=32	=32	=32	=32	=32	=32	=32	=32	=32
4G\	5	.	.	.	.	.	.	.	.	2.G\	-men	8g\L	.	8b\L	.
.	.	.	.	.	.	.	.	.	.	.	.	8f#X\	.	8a\	.
4GG/	.	.	.	.	.	.	.	.	.	.	.	8g\	.	8b\	.
.	.	.	.	.	.	.	.	.	.	.	.	8a\	.	8cc\	.
4G\	.	.	.	.	.	.	.	.	.	.	.	8b\	.	8dd\	.
.	.	.	.	.	.	.	.	.	.	.	.	8g\J	.	8b\J	.
!LO:LB:g=original	!	!	!	!	!	!	!	!	!	!	!	!	!	!	!
=33	=33	=33	=33	=33	=33	=33	=33	=33	=33	=33	=33	=33	=33	=33	=33
!	!	!LO:N:vis=00	!	!LO:N:vis=00	!	!LO:N:vis=00	!	!LO:N:vis=00	!	!	!	!LO:N:vis=4.	!	!	!
4d\	.	0.r	.	0.r	.	0.r	.	0.r	.	4d\	a-	2.f#X\	.	2.a\	.
8D\L	.	.	.	.	.	.	.	.	.	8D\L	.	.	.	.	.
8E\	.	.	.	.	.	.	.	.	.	8E\	.	.	.	.	.
8F#X\	.	.	.	.	.	.	.	.	.	8F#X\	.	.	.	.	.
8D\J	.	.	.	.	.	.	.	.	.	8D\J	.	.	.	.	.
=34	=34	=34	=34	=34	=34	=34	=34	=34	=34	=34	=34	=34	=34	=34	=34
4G\	.	.	.	.	.	.	.	.	.	4G\	-men	8g\L	.	8b\L	.
!	!	!	!	!	!	!	!	!	!	!	!	!LO:TX:t=P:problem=♯ above	!	!	!
.	.	.	.	.	.	.	.	.	.	.	.	8f#X\	.	8a\	.
4GG/	.	.	.	.	.	.	.	.	.	4r	.	8g\	.	8b\	.
.	.	.	.	.	.	.	.	.	.	.	.	8a\	.	8cc\	.
4r	.	.	.	.	.	.	.	.	.	4r	.	8b\	.	8dd\	.
.	.	.	.	.	.	.	.	.	.	.	.	8g\J	.	8b\J	.
!	!	!	!	!	!	!	!	!	!	!	!	!LO:PB:g=original	!	!LO:LB:g=original	!
=35	=35	=35	=35	=35	=35	=35	=35	=35	=35	=35	=35	=35	=35	=35	=35
4d\	#3	.	.	.	.	.	.	.	.	4d\	a-	2.f#X\	.	2.a\	.
8D\L	.	.	.	.	.	.	.	.	.	8D\L	.	.	.	.	.
8E\	.	.	.	.	.	.	.	.	.	8E\	.	.	.	.	.
8F#X\	.	.	.	.	.	.	.	.	.	8F#X\	.	.	.	.	.
8D\J	.	.	.	.	.	.	.	.	.	8D\J	.	.	.	.	.
=36	=36	=36	=36	=36	=36	=36	=36	=36	=36	=36	=36	=36	=36	=36	=36
4G\	.	.	.	.	.	.	.	.	.	2G\	-men	8g\L	.	8b\L	.
.	.	.	.	.	.	.	.	.	.	.	.	8f#X\	.	8a\	.
4GG/	.	.	.	.	.	.	.	.	.	.	.	8g\	.	8b\	.
.	.	.	.	.	.	.	.	.	.	.	.	8a\	.	8cc\	.
4G\	.	.	.	.	.	.	.	.	.	4r	.	8b\	.	8dd\	.
.	.	.	.	.	.	.	.	.	.	.	.	8g\J	.	8b\J	.
!LO:PB:g=original	!	!	!	!	!	!	!	!	!	!LO:LB:g=original	!	!	!	!	!
=37	=37	=37	=37	=37	=37	=37	=37	=37	=37	=37	=37	=37	=37	=37	=37
!	!	!LO:N:vis=00	!	!LO:N:vis=00	!	!LO:N:vis=00	!	!LO:N:vis=00	!	!	!	!	!	!	!
8c\L	.	0.r	.	0.r	.	0.r	.	0.r	.	8c\L	a-	4e\	-men	4cc\	-men
8d\J	.	.	.	.	.	.	.	.	.	8d\J	.	.	.	.	.
4c\	.	.	.	.	.	.	.	.	.	4c\	.	4r	.	4r	.
4c\	.	.	.	.	.	.	.	.	.	4c\	.	4r	.	4r	.
=38	=38	=38	=38	=38	=38	=38	=38	=38	=38	=38	=38	=38	=38	=38	=38
4c\	.	.	.	.	.	.	.	.	.	4c\	.	2.e\	a-	4r	.
8C\L	.	.	.	.	.	.	.	.	.	8C\L	.	.	.	4g\	a-
8D\	.	.	.	.	.	.	.	.	.	8D\	.	.	.	.	.
8E\	.	.	.	.	.	.	.	.	.	8E\	.	.	.	4cc\	-men
8F\J	.	.	.	.	.	.	.	.	.	8F\J	.	.	.	.	.
=39	=39	=39	=39	=39	=39	=39	=39	=39	=39	=39	=39	=39	=39	=39	=39
2G\	.	.	.	.	.	.	.	.	.	2G\	.	2.d\	.	4cc\	a-
.	.	.	.	.	.	.	.	.	.	.	.	.	.	4b\	.
4G\	.	.	.	.	.	.	.	.	.	4G\	.	.	.	4gg\	.
=40	=40	=40	=40	=40	=40	=40	=40	=40	=40	=40	=40	=40	=40	=40	=40
4A\	.	.	.	.	.	.	.	.	.	4A\	.	4d\	.	4gg\	.
2B\	.	.	.	.	.	.	.	.	.	2B\	.	4e\	.	8ff\L	.
.	.	.	.	.	.	.	.	.	.	.	.	.	.	8ee\	.
.	.	.	.	.	.	.	.	.	.	.	.	4g\	.	8ff\	.
.	.	.	.	.	.	.	.	.	.	.	.	.	.	8dd\J	.
!	!	!	!	!	!	!	!	!	!	!	!	!LO:LB:g=original	!	!	!
=41	=41	=41	=41	=41	=41	=41	=41	=41	=41	=41	=41	=41	=41	=41	=41
!	!	!LO:N:vis=00	!	!LO:N:vis=00	!	!LO:N:vis=00	!	!LO:N:vis=00	!	!	!	!	!	!	!
4c\	.	0.r	.	0.r	.	0.r	.	0.r	.	4c\	.	4.e\	.	4.cc\	.
4C/	.	.	.	.	.	.	.	.	.	2C/	-men	.	.	.	.
.	.	.	.	.	.	.	.	.	.	.	.	8f\	.	8dd\	.
4C/	.	.	.	.	.	.	.	.	.	.	.	4g\	.	4ee\	.
!LO:LB:g=original	!	!	!	!	!	!	!	!	!	!LO:LB:g=original	!	!	!	!LO:LB:g=original	!
=42	=42	=42	=42	=42	=42	=42	=42	=42	=42	=42	=42	=42	=42	=42	=42
4F\	.	.	.	.	.	.	.	.	.	4F\	a-	4a\	.	4ee\	.
8F\L	.	.	.	.	.	.	.	.	.	8F\L	.	4.f\	.	4a\	.
8G\	.	.	.	.	.	.	.	.	.	8G\	.	.	.	.	.
8A\	.	.	.	.	.	.	.	.	.	8A\	.	.	.	4cc\	.
8F\J	.	.	.	.	.	.	.	.	.	8F\J	.	8g\	.	.	.
=43	=43	=43	=43	=43	=43	=43	=43	=43	=43	=43	=43	=43	=43	=43	=43
4G\	.	.	.	.	.	.	.	.	.	4G\	.	4.g\	.	4b\	.
4B\	.	.	.	.	.	.	.	.	.	4B\	.	.	.	4dd\	.
.	.	.	.	.	.	.	.	.	.	.	.	8f\	.	.	.
4c\	.	.	.	.	.	.	.	.	.	4c\	.	4e\	.	4ee\	.
=44	=44	=44	=44	=44	=44	=44	=44	=44	=44	=44	=44	=44	=44	=44	=44
4F\	.	.	.	.	.	.	.	.	.	4F\	.	4a\	.	8ff\L	.
.	.	.	.	.	.	.	.	.	.	.	.	.	.	8dd\J	.
4G\	.	.	.	.	.	.	.	.	.	2G\	.	2d\	.	2b\	.
4G\	.	.	.	.	.	.	.	.	.	.	.	.	.	.	.
!	!	!LO:LB:g=original	!	!	!	!	!	!	!	!	!	!	!	!	!
=45	=45	=45	=45	=45	=45	=45	=45	=45	=45	=45	=45	=45	=45	=45	=45
*	*	*	*	*2\right	*	*2\right	*	*2\right	*	*	*	*	*	*	*
8c\L	.	8c\L	a-	2.e\	a-	2.g\	a-	2.cc\	A-	4C/	-men	4e\	-men	4cc\	-men
8d\J	.	8d\J	.	.	.	.	.	.	.	.	.	.	.	.	.
4c\	.	4c\	.	.	.	.	.	.	.	4r	.	4r	.	4r	.
4c\	.	4c\	.	.	.	.	.	.	.	4r	.	4r	.	4r	.
=46	=46	=46	=46	=46	=46	=46	=46	=46	=46	=46	=46	=46	=46	=46	=46
!	!	!	!	!	!	!	!	!	!	!LO:TX:b:t=4	!	!LO:TX:b:t=5	!	!LO:TX:b:t=3	!
!	!	!	!	!	!	!	!	!	!	!LO:N:vis=00	!	!LO:N:vis=00	!	!LO:N:vis=0	!
4c\	.	4c\	.	2.e\	-men	2.g\	-men	2.cc\	-men	0.r	.	0.r	.	1.r	.
8C\L	.	8C\L	.	.	.	.	.	.	.	.	.	.	.	.	.
8D\	.	8D\	.	.	.	.	.	.	.	.	.	.	.	.	.
8E\	.	8E\	.	.	.	.	.	.	.	.	.	.	.	.	.
8F\J	.	8F\J	.	.	.	.	.	.	.	.	.	.	.	.	.
!LO:LB:g=original	!	!	!	!LO:LB:g=original	!	!	!	!	!	!	!	!	!	!	!
=47	=47	=47	=47	=47	=47	=47	=47	=47	=47	=47	=47	=47	=47	=47	=47
4G\	.	4G\	.	2d\	a-	2g\	a-	2b\	a-	.	.	.	.	.	.
4F\	.	4F\	.	.	.	.	.	.	.	.	.	.	.	.	.
4E\	.	4E\	.	[4e\	.	4g\	.	[4cc\	-men	.	.	.	.	.	.
=48	=48	=48	=48	=48	=48	=48	=48	=48	=48	=48	=48	=48	=48	=48	=48
4F\	.	4F\	.	8e\L]	.	4a\	.	8cc\L]	.	.	.	.	.	2.r	.
.	.	.	.	8f\J	.	.	.	8dd\J	.	.	.	.	.	.	.
4G\	.	2G\	.	4e\	.	2g\	.	4cc\	a-	.	.	.	.	.	.
4G\	.	.	.	4d\	.	.	.	4b\	.	.	.	.	.	.	.
!	!	!	!	!	!	!	!	!LO:LB:g=original	!	!	!	!	!	!	!
=49	=49	=49	=49	=49	=49	=49	=49	=49	=49	=49	=49	=49	=49	=49	=49
!LO:TX:a:t=Soli	!	!	!	!	!	!	!	!	!	!	!	!	!	!	!
4C\	.	4C/	-men	4c\	-men	4g\	-men	4cc\	-men	.	.	.	.	8cc\L	a-
.	.	.	.	.	.	.	.	.	.	.	.	.	.	8dd\J	.
4r	.	4r	.	4r	.	4r	.	4r	.	.	.	.	.	4cc\	.
4r	.	4r	.	4r	.	4r	.	4r	.	.	.	.	.	4cc\	.
!	!	!LO:PB:gb=original	!	!	!	!LO:LB:g=original	!	!	!	!LO:PB:g=original	!	!	!	!	!
=50	=50	=50	=50	=50	=50	=50	=50	=50	=50	=50	=50	=50	=50	=50	=50
!	!	!LO:TX:b:t=3.	!	!LO:TX:b:t=3.	!	!LO:TX:b:t=3	!	!LO:TX:b:t=3	!	!	!	!	!	!	!
!	!	!LO:N:vis=0	!	!LO:N:vis=00	!	!LO:N:vis=0	!	!LO:N:vis=0	!	!	!	!	!	!	!
4C/	.	1.r	.	1.r	.	1.r	.	1.r	.	4r	.	2.r	.	8cc\L	.
.	.	.	.	.	.	.	.	.	.	.	.	.	.	8b\	.
4c\	.	.	.	.	.	.	.	.	.	4c\	a-	.	.	8cc\	.
.	.	.	.	.	.	.	.	.	.	.	.	.	.	8dd\	.
4c\	.	.	.	.	.	.	.	.	.	4c\	-men	.	.	8ee\	.
.	.	.	.	.	.	.	.	.	.	.	.	.	.	8ffn\J	.
!	!	!	!	!	!	!	!	!	!	!	!	!	!	!LO:LB:g=original	!
=51	=51	=51	=51	=51	=51	=51	=51	=51	=51	=51	=51	=51	=51	=51	=51
4B\	.	.	.	.	.	.	.	.	.	4B\	a-	4r	.	4gg\	.
8A\L	.	.	.	.	.	.	.	.	.	8A\L	.	4g\	a-	4g\	.
8B\J	.	.	.	.	.	.	.	.	.	8B\J	.	.	.	.	.
4G\	.	.	.	.	.	.	.	.	.	4G\	.	4g\	-men	4b\	.
!LO:LB:g=original	!	!	!	!	!	!	!	!	!	!	!	!LO:LB:g=original	!	!	!
=52	=52	=52	=52	=52	=52	=52	=52	=52	=52	=52	=52	=52	=52	=52	=52
4A\	.	2.r	.	2.r	.	2.r	.	2.r	.	4A\	.	8fn\L	a-	4cc\	.
.	.	.	.	.	.	.	.	.	.	.	.	8e\	.	.	.
4B\	.	.	.	.	.	.	.	.	.	2B\	.	8d\	.	2dd\	.
.	.	.	.	.	.	.	.	.	.	.	.	8e\	.	.	.
4B\	.	.	.	.	.	.	.	.	.	.	.	8f\	.	.	.
.	.	.	.	.	.	.	.	.	.	.	.	8g\J	.	.	.
=53	=53	=53	=53	=53	=53	=53	=53	=53	=53	=53	=53	=53	=53	=53	=53
!LO:TX:a:t=Tutti	!	!	!	!	!	!	!	!	!	!	!	!	!	!	!
8c\L	.	8c\L	a-	2.c\	a-	2.g\	a-	2ee\	a-	4c\	-men	4e\	-men	4g/	-men
8d\J	.	8d\J	.	.	.	.	.	.	.	.	.	.	.	.	.
4c\	.	4c\	.	.	.	.	.	.	.	4r	.	4r	.	4r	.
4c\	.	4c\	.	.	.	.	.	4ee\	.	4r	.	4r	.	4r	.
=54	=54	=54	=54	=54	=54	=54	=54	=54	=54	=54	=54	=54	=54	=54	=54
!	!	!	!	!	!	!	!	!	!	!LO:TX:b:t=7	!	!LO:TX:b:t=7	!	!LO:TX:b:t=7.	!
!	!	!	!	!	!	!	!	!	!	!LO:N:vis=00	!	!LO:N:vis=00	!	!LO:N:vis=00	!
4B\	.	4B\	.	2.d\	.	2.g\	-men	4dd\	.	0.r	.	0.r	.	0.r	.
8A\L	.	8A\L	.	.	.	.	.	8cc\L	.	.	.	.	.	.	.
8B\J	.	8B\J	.	.	.	.	.	8dd\J	.	.	.	.	.	.	.
4G\	.	4G\	.	.	.	.	.	4b\	.	.	.	.	.	.	.
=55	=55	=55	=55	=55	=55	=55	=55	=55	=55	=55	=55	=55	=55	=55	=55
*	*	*	*	*	*	*	*ij	*	*	*	*	*	*	*	*
8A\L	.	8A\L	.	2.e\	.	2.e\	a-	2cc\	.	.	.	.	.	.	.
8B\J	.	8B\J	.	.	.	.	.	.	.	.	.	.	.	.	.
4A\	.	4A\	.	.	.	.	.	.	.	.	.	.	.	.	.
4A\	.	4A\	.	.	.	.	.	4cc\	.	.	.	.	.	.	.
!LO:LB:g=original	!	!	!	!LO:LB:g=original	!	!	!	!	!	!	!	!	!	!	!
=56	=56	=56	=56	=56	=56	=56	=56	=56	=56	=56	=56	=56	=56	=56	=56
4G\	.	4G\	.	2.B\	-men	2.e\	-men	4b\	.	.	.	.	.	.	.
*	*	*	*	*	*	*	*Xij	*	*	*	*	*	*	*	*
8Fn\L	.	8F\L	.	.	.	.	.	8a\L	.	.	.	.	.	.	.
8G\J	.	8G\J	.	.	.	.	.	8b\J	.	.	.	.	.	.	.
4E\	.	4E\	.	.	.	.	.	4g\	.	.	.	.	.	.	.
!	!	!LO:LB:g=original	!	!	!	!	!	!LO:LB:g=original	!	!	!	!	!	!	!
=57	=57	=57	=57	=57	=57	=57	=57	=57	=57	=57	=57	=57	=57	=57	=57
8F\L	.	8F\L	.	4r	.	2c\	a-	4a\	.	.	.	.	.	.	.
8G\J	.	8G\J	.	.	.	.	.	.	.	.	.	.	.	.	.
4A\	.	4A\	.	4f\	a-	.	.	4ff\	.	.	.	.	.	.	.
!	!	!	!	!	!	!LO:SIC:v:s=4d	!	!	!	!	!	!	!	!	!
4B\	.	4B\	.	4d\	.	4e\	.	4ff\	.	.	.	.	.	.	.
=58	=58	=58	=58	=58	=58	=58	=58	=58	=58	=58	=58	=58	=58	=58	=58
!	!	!	!	!	!	!	!	!	!	!LO:N:vis=0	!	!LO:N:vis=0	!	!LO:N:vis=0	!
4c\	.	4c\	.	2.c\	.	2e\	.	2.ee\	.	1.r	.	1.r	.	1.r	.
4A\	.	4A\	.	.	.	.	.	.	.	.	.	.	.	.	.
!LO:SIC:v:s=4F#	!	!	!	!	!	!	!	!	!	!	!	!	!	!	!
4F\	.	4F#X\	.	.	.	4a\	.	.	.	.	.	.	.	.	.
!	!	!	!	!	!	!LO:LB:g=original	!	!	!	!	!	!	!	!	!
=59	=59	=59	=59	=59	=59	=59	=59	=59	=59	=59	=59	=59	=59	=59	=59
4G\	7	4G\	.	4B\	.	4d\	.	4dd\	.	.	.	.	.	.	.
4A\	6	4A\	.	4A\	.	4f#X\	.	4cc\	.	.	.	.	.	.	.
4B\	.	4B\	.	4G\	.	4g\	.	4b\	.	.	.	.	.	.	.
!LO:LB:g=original	!	!	!	!	!	!	!	!	!	!	!	!	!	!	!
=60	=60	=60	=60	=60	=60	=60	=60	=60	=60	=60	=60	=60	=60	=60	=60
4c\	.	4c\	.	2.e\	.	2e\	.	4g\	.	2.r	.	2.r	.	2.r	.
4A\	.	4A\	.	.	.	.	.	2cc\	.	.	.	.	.	.	.
4F#X\	.	4F#X\	.	.	.	4a\	.	.	.	.	.	.	.	.	.
!	!	!	!	!	!	!	!	!	!	!LO:LB:g=original	!	!	!	!	!
=61	=61	=61	=61	=61	=61	=61	=61	=61	=61	=61	=61	=61	=61	=61	=61
*	*	*2\right	*	*	*	*	*	*	*	*	*	*	*	*	*
!LO:TX:a:t=Soli	!	!	!	!	!	!	!	!	!	!	!	!	!	!	!
2.G\	.	2.G\	-men	4d\	.	4g\	-men	4b\	.	4r	.	4r	.	4r	.
.	.	.	.	8c\L	.	4r	.	8a\L	.	4G\	a-	4d\	a-	4b\	a-
.	.	.	.	8d\J	.	.	.	8b\J	.	.	.	.	.	.	.
.	.	.	.	4B\	-men	4r	.	4g\	-men	4G\	-men	4d\	-men	4b\	-men
!	!	!LO:LB:g=original	!	!LO:LB:g=original	!	!	!	!	!	!	!	!	!	!	!
=62	=62	=62	=62	=62	=62	=62	=62	=62	=62	=62	=62	=62	=62	=62	=62
!	!	!LO:TX:b:t=5.	!	!LO:TX:b:t=5	!	!LO:TX:b:t=5	!	!LO:TX:b:t=5	!	!	!	!	!	!	!
!	!	!LO:N:vis=00	!	!LO:N:vis=00	!	!LO:N:vis=00	!	!LO:N:vis=00	!	!	!	!	!	!	!
2.Fn\	6 4	0.r	.	0.r	.	0.r	.	0.r	.	2.Fn\	a-	8d\L	a-	8b\L	a-
.	.	.	.	.	.	.	.	.	.	.	.	8cn\	.	8a\	.
.	.	.	.	.	.	.	.	.	.	.	.	8d\	.	8b\	.
.	.	.	.	.	.	.	.	.	.	.	.	8e\	.	8cc\	.
.	.	.	.	.	.	.	.	.	.	.	.	8f\	.	8dd\	.
.	.	.	.	.	.	.	.	.	.	.	.	8d\J	.	8b\J	.
!	!	!	!	!	!	!	!	!	!	!	!	!	!	!LO:PB:g=original	!
=63	=63	=63	=63	=63	=63	=63	=63	=63	=63	=63	=63	=63	=63	=63	=63
2.E\	6	.	.	.	.	.	.	.	.	2.E\	.	8e\L	.	8cc\L	.
.	.	.	.	.	.	.	.	.	.	.	.	8d\	.	8b\	.
.	.	.	.	.	.	.	.	.	.	.	.	8e\	.	8cc\	.
.	.	.	.	.	.	.	.	.	.	.	.	8f\J	.	8dd\J	.
.	.	.	.	.	.	.	.	.	.	.	.	[4e\	.	8cc\	.
.	.	.	.	.	.	.	.	.	.	.	.	.	.	8r	.
!	!	!	!	!	!	!	!	!	!	!	!	!LO:LB:g=original	!	!	!
=64	=64	=64	=64	=64	=64	=64	=64	=64	=64	=64	=64	=64	=64	=64	=64
2.C\	.	.	.	.	.	.	.	.	.	2.C/	.	8e\L]	.	8cc\L	.
.	.	.	.	.	.	.	.	.	.	.	.	8d\	.	8b\	.
.	.	.	.	.	.	.	.	.	.	.	.	8e\	.	8cc\	.
.	.	.	.	.	.	.	.	.	.	.	.	8f\	.	8dd\	.
.	.	.	.	.	.	.	.	.	.	.	.	8g\	.	8ee\	.
.	.	.	.	.	.	.	.	.	.	.	.	8e\J	.	8cc\J	.
=65	=65	=65	=65	=65	=65	=65	=65	=65	=65	=65	=65	=65	=65	=65	=65
2.G\	.	.	.	.	.	.	.	.	.	2.G\	.	8B/L	.	8dd\L	.
.	.	.	.	.	.	.	.	.	.	.	.	8A/	.	8cc#X\	.
.	.	.	.	.	.	.	.	.	.	.	.	8B/	.	8dd\	.
.	.	.	.	.	.	.	.	.	.	.	.	8c/J	.	8ee\J	.
.	.	.	.	.	.	.	.	.	.	.	.	8B/	.	[4dd\	.
.	.	.	.	.	.	.	.	.	.	.	.	8r	.	.	.
=66	=66	=66	=66	=66	=66	=66	=66	=66	=66	=66	=66	=66	=66	=66	=66
2.GG/	n7	2.r	.	2.r	.	2.r	.	2.r	.	2.GG/	.	8b\L	.	8dd\L]	.
.	.	.	.	.	.	.	.	.	.	.	.	8a\	.	8cc#X\	.
.	.	.	.	.	.	.	.	.	.	.	.	8b\	.	8dd\	.
.	.	.	.	.	.	.	.	.	.	.	.	8cc\	.	8ee\	.
.	.	.	.	.	.	.	.	.	.	.	.	8dd\	.	8ffn\	.
.	.	.	.	.	.	.	.	.	.	.	.	8b\J	.	8dd\J	.
!LO:LB:g=original	!	!	!	!	!	!	!	!LO:LB:g=original	!	!	!	!	!	!LO:LB:g=original	!
=67	=67	=67	=67	=67	=67	=67	=67	=67	=67	=67	=67	=67	=67	=67	=67
4C/	.	4r	.	2.c\	a-	[2.g\	a-	4r	.	4C/	-men	4cc\	-men	4ee\	-men
!LO:TX:a:t=Tutti	!	!	!	!	!	!	!	!	!	!	!	!	!	!	!
4c\	.	4c\	a-	.	.	.	.	4ee\	a-	4r	.	4r	.	4r	.
4c\	.	4c\	.	.	.	.	.	4ee\	.	4r	.	4r	.	4r	.
!	!	!	!	!	!	!LO:LB:g=original	!	!	!	!LO:LB:g=original	!	!	!	!	!
=68	=68	=68	=68	=68	=68	=68	=68	=68	=68	=68	=68	=68	=68	=68	=68
!	!	!	!	!	!	!LO:TX:a:t=P:problem=brak zakończenia ligatury	!	!	!	!LO:TX:b:t=6.	!	!LO:TX:b:t=6	!	!LO:TX:b:t=6.	!
!	!	!	!	!	!	!	!	!	!	!LO:N:vis=00	!	!LO:N:vis=00	!	!LO:N:vis=00	!
8B\L	.	8B\L	.	4d\	.	4g\]	.	4dd\	.	0.r	.	0.r	.	0.r	.
8c\	.	8c\	.	.	.	.	.	.	.	.	.	.	.	.	.
8B\	.	8B\	.	8d\L	.	8g\L	.	4gg\	.	.	.	.	.	.	.
8A\J	.	8A\J	.	8c\J	.	8a\	.	.	.	.	.	.	.	.	.
4G\	.	4G\	.	4B\	.	8b\	.	4gg\	.	.	.	.	.	.	.
.	.	.	.	.	.	8g\J	.	.	.	.	.	.	.	.	.
=69	=69	=69	=69	=69	=69	=69	=69	=69	=69	=69	=69	=69	=69	=69	=69
4A\	5	4A\	.	2.c\	.	4e\	.	4cc\	.	.	.	.	.	.	.
4A\	6	4A\	.	.	.	4f\	.	2ff\	.	.	.	.	.	.	.
4A\	.	4A\	.	.	.	4f\	.	.	.	.	.	.	.	.	.
=70	=70	=70	=70	=70	=70	=70	=70	=70	=70	=70	=70	=70	=70	=70	=70
8G\L	5	8G\L	.	4e\	.	8g\L	.	4b\	.	.	.	.	.	.	.
8A\	.	8A\	.	.	.	8a\	.	.	.	.	.	.	.	.	.
8G\	.	8G\	.	8e\L	.	8b\	.	4ee\	.	.	.	.	.	.	.
8F\J	.	8F\J	.	8fn\J	.	8a\J	.	.	.	.	.	.	.	.	.
4E\	.	4E\	.	4g\	.	4g\	.	4ee\	.	.	.	.	.	.	.
!	!	!LO:LB:g=original	!	!	!	!	!	!	!	!	!	!	!	!	!
=71	=71	=71	=71	=71	=71	=71	=71	=71	=71	=71	=71	=71	=71	=71	=71
4F\	5	4F\	.	4c\	.	2.a\	.	4a\	.	.	.	.	.	.	.
4F\	.	4F\	.	4A\	.	.	.	2dd\	.	.	.	.	.	.	.
4F\	6	4F\	.	4d\	.	.	.	.	.	.	.	.	.	.	.
!LO:LB:g=original	!	!	!	!LO:LB:g=original	!	!LO:PB:g=original	!	!LO:PB:g=original	!	!	!	!	!	!	!
=72	=72	=72	=72	=72	=72	=72	=72	=72	=72	=72	=72	=72	=72	=72	=72
!	!	!	!	!	!	!	!	!	!	!LO:N:vis=0	!	!LO:N:vis=0	!	!LO:N:vis=0	!
8E\L	.	8E\L	.	8e\L	.	8g\L	.	4g\	.	1.r	.	1.r	.	1.r	.
8F\	.	8F\	.	8f\J	.	8a\	.	.	.	.	.	.	.	.	.
8E\	.	8E\	.	4g\	.	8g\	.	[2cc\	.	.	.	.	.	.	.
8D\J	.	8D\J	.	.	.	8f\J	.	.	.	.	.	.	.	.	.
4C/	.	4C\	.	4g\	.	4e\	.	.	.	.	.	.	.	.	.
=73	=73	=73	=73	=73	=73	=73	=73	=73	=73	=73	=73	=73	=73	=73	=73
4F\	.	4F\	.	8f\L	.	8f\L	.	8cc\L]	.	.	.	.	.	.	.
.	.	.	.	8e\J	.	8a\J	.	8dd\J	.	.	.	.	.	.	.
4G\	5	4G\	.	2d\	.	2g\	.	2b\	-men	.	.	.	.	.	.
4GG/	.	4GG/	.	.	.	.	.	.	.	.	.	.	.	.	.
!	!	!	!	!	!	!	!	!	!	!	!	!LO:LB:g=original	!	!	!
=74	=74	=74	=74	=74	=74	=74	=74	=74	=74	=74	=74	=74	=74	=74	=74
!	!	!	!	!	!	!LO:SIC:v:s=4g	!	!	!	!	!	!	!	!	!
4C\	.	4C/	-men	4e\	-men	4f\	-men	4cc\	x	[2.c\	a-	8e\L	a-	8cc\L	a-
.	.	.	.	.	.	.	.	.	.	.	.	8f\J	.	8dd\J	.
!LO:TX:a:t=Soli	!	!	!	!	!	!	!	!	!	!	!	!	!	!	!
4r	.	4r	.	4r	.	4r	.	4r	.	.	.	4e\	.	4cc\	.
4r	.	4r	.	4r	.	4r	.	4r	.	.	.	4e\	-men	4cc\	.
=75	=75	=75	=75	=75	=75	=75	=75	=75	=75	=75	=75	=75	=75	=75	=75
!	!	!LO:TX:b:t=6.	!	!LO:TX:b:t=6.	!	!LO:TX:b:t=6	!	!LO:TX:b:t=6.	!	!	!	!	!	!	!
!	!	!LO:N:vis=00	!	!LO:N:vis=00	!	!LO:N:vis=00	!	!LO:N:vis=00	!	!	!	!	!	!	!
4c\	.	0.r	.	0.r	.	0.r	.	0.r	.	4c\]	.	8e\L	a-	8cc\L	.
.	.	.	.	.	.	.	.	.	.	.	.	8d\	.	8dd\	.
4G\	.	.	.	.	.	.	.	.	.	4G\	.	8c\	.	8ee\	.
.	.	.	.	.	.	.	.	.	.	.	.	8d\J	.	8ff\J	.
4E\	.	.	.	.	.	.	.	.	.	4E\	.	4e\	.	4gg\	.
!LO:PB:g=original	!	!	!	!	!	!	!	!	!	!	!	!	!	!	!
=76	=76	=76	=76	=76	=76	=76	=76	=76	=76	=76	=76	=76	=76	=76	=76
2.C/	.	.	.	.	.	.	.	.	.	2.C/	-men	8c\L	.	8ee\L	.
.	.	.	.	.	.	.	.	.	.	.	.	8d\J	.	8ff\J	.
.	.	.	.	.	.	.	.	.	.	.	.	4c\	.	4ee\	.
.	.	.	.	.	.	.	.	.	.	.	.	4c\	.	4ee\	.
!	!	!	!	!	!	!	!	!	!	!	!	!	!	!LO:LB:g=original	!
=77	=77	=77	=77	=77	=77	=77	=77	=77	=77	=77	=77	=77	=77	=77	=77
4c\	.	.	.	.	.	.	.	.	.	4c\	a-	8c\L	.	8ee\L	.
.	.	.	.	.	.	.	.	.	.	.	.	8d\	.	8dd\	.
4G\	.	.	.	.	.	.	.	.	.	4G\	.	8e\	.	8cc\	.
.	.	.	.	.	.	.	.	.	.	.	.	8f\J	.	8dd\J	.
4E\	.	.	.	.	.	.	.	.	.	4E\	.	4g\	.	4ee\	.
!	!	!	!	!	!	!	!	!	!	!	!	!	!	!LO:LB:g=original	!
=78	=78	=78	=78	=78	=78	=78	=78	=78	=78	=78	=78	=78	=78	=78	=78
4C/	.	.	.	.	.	.	.	.	.	4C/	-men	8e\L	.	8cc\L	.
.	.	.	.	.	.	.	.	.	.	.	.	8f\J	.	8dd\J	.
4r	.	.	.	.	.	.	.	.	.	4r	.	4e\	.	4cc\	.
4r	.	.	.	.	.	.	.	.	.	4r	.	4e\	.	4cc\	.
!	!	!	!	!	!	!	!	!	!	!LO:LB:g=original	!	!LO:LB:g=original	!	!	!
=79	=79	=79	=79	=79	=79	=79	=79	=79	=79	=79	=79	=79	=79	=79	=79
!	!	!LO:N:vis=0	!	!LO:N:vis=0	!	!LO:N:vis=0	!	!LO:N:vis=0	!	!	!	!	!	!	!
2.c\	.	1.r	.	1.r	.	1.r	.	1.r	.	2.c\	a-	8e\L	.	8cc\L	.
.	.	.	.	.	.	.	.	.	.	.	.	8d\	.	8dd\	.
.	.	.	.	.	.	.	.	.	.	.	.	8c\	.	8ee\	.
.	.	.	.	.	.	.	.	.	.	.	.	8d\J	.	8ff\J	.
.	.	.	.	.	.	.	.	.	.	.	.	4e\	.	4gg\	.
=80	=80	=80	=80	=80	=80	=80	=80	=80	=80	=80	=80	=80	=80	=80	=80
4F\	.	.	.	.	.	.	.	.	.	4F\	.	4a\	.	8ff\L	.
.	.	.	.	.	.	.	.	.	.	.	.	.	.	8dd\J	.
4G\	.	.	.	.	.	.	.	.	.	4G\	.	4c/	.	4ee\	.
4GG/	.	.	.	.	.	.	.	.	.	4GG/	.	4B/	.	4dd\	.
!LO:LB:g=original	!	!LO:LB:g=original	!	!	!	!	!	!	!	!	!	!	!	!	!
=81	=81	=81	=81	=81	=81	=81	=81	=81	=81	=81	=81	=81	=81	=81	=81
!LO:TX:a:t=Tutti	!	!	!	!	!	!	!	!	!	!	!	!	!	!	!
8c\L	.	8c\L	a-	4e\	a-	8e\L	a-	2.cc\	a-	4C/	-men	4c\	-men	4cc\	-men
8d\J	.	8d\J	.	.	.	8f\J	.	.	.	.	.	.	.	.	.
4c\	.	4c\	.	2g\	.	4e\	.	.	.	4r	.	4r	.	4r	.
4c\	.	4c\	.	.	.	4e\	.	.	.	4r	.	4r	.	4r	.
!	!	!	!	!LO:LB:g=original	!	!LO:LB:g=original	!	!	!	!	!	!	!	!LO:LB:g=original	!
=82	=82	=82	=82	=82	=82	=82	=82	=82	=82	=82	=82	=82	=82	=82	=82
!	!	!	!	!	!	!	!	!	!	!LO:TX:b:t=4	!	!LO:TX:b:t=3	!	!LO:TX:b:t=5	!
!	!	!	!	!	!	!	!	!	!	!LO:N:vis=00	!	!LO:N:vis=0	!	!LO:N:vis=00	!
4c\	.	4c\	.	4g\	.	2.e\	.	2.cc\	-men	0.r	.	1.r	.	0.r	.
8C\L	.	8C\L	.	4e\	.	.	.	.	.	.	.	.	.	.	.
8D\	.	8D\	.	.	.	.	.	.	.	.	.	.	.	.	.
8E\	.	8E\	.	4c\	.	.	.	.	.	.	.	.	.	.	.
8F\J	.	8F\J	.	.	.	.	.	.	.	.	.	.	.	.	.
=83	=83	=83	=83	=83	=83	=83	=83	=83	=83	=83	=83	=83	=83	=83	=83
4G\	.	4G\	.	4G/	.	2d\	.	2b\	a-	.	.	.	.	.	.
4F\	.	4F\	.	4d\	.	.	.	.	.	.	.	.	.	.	.
4E\	.	4E\	.	4g\	.	4e\	.	[4cc\	.	.	.	.	.	.	.
!	!	!	!	!	!	!	!	!LO:LB:g=original	!	!	!	!	!	!	!
=84	=84	=84	=84	=84	=84	=84	=84	=84	=84	=84	=84	=84	=84	=84	=84
4F\	.	4F\	.	4f\	.	4a\	.	4cc\]	.	.	.	2.r	.	.	.
4G\	.	4G\	.	2d\	.	2g\	.	2b\	.	.	.	.	.	.	.
4GG/	.	4GG/	.	.	.	.	.	.	.	.	.	.	.	.	.
!LO:LB:g=original	!	!LO:LB:g=original	!	!	!	!	!	!	!	!	!	!	!	!	!
=85	=85	=85	=85	=85	=85	=85	=85	=85	=85	=85	=85	=85	=85	=85	=85
!LO:TX:t=P:problem=zbędne pauzy w tt. 85-86 w C conc	!	!LO:TX:t=P:problem=zbędne pauzy w tt. 85-86 w C conc	!	!LO:TX:t=P:problem=zbędne pauzy w tt. 85-86 w C conc	!	!LO:TX:t=P:problem=zbędne pauzy w tt. 85-86 w C conc	!	!LO:TX:t=P:problem=zbędne pauzy w tt. 85-86 w C conc	!	!LO:TX:t=P:problem=zbędne pauzy w tt. 85-86 w C conc (przesunięte o takt ze wzgl. na pauzę 00r)	!	!LO:TX:t=P:problem=zbędne pauzy w tt. 85-86 w C conc	!	!LO:TX:t=P:problem=zbędne pauzy w tt. 85-86	!
2.ryy	.	2.ryy	.	2.ryy	.	2.ryy	.	2.ryy	.	.	.	2.ryy	.	.	.
=86	=86	=86	=86	=86	=86	=86	=86	=86	=86	=86	=86	=86	=86	=86	=86
2.ryy	.	2.ryy	.	2.ryy	.	2.ryy	.	2.ryy	.	2.ryy	.	2.ryy	.	2.r	.
=87	=87	=87	=87	=87	=87	=87	=87	=87	=87	=87	=87	=87	=87	=87	=87
4C\	.	4C/	-men	4e\	-men	4e\	-men	4cc\	-men	2.ryy	.	8e\L	a-	8cc\L	a-
.	.	.	.	.	.	.	.	.	.	.	.	8f\J	.	8dd\J	.
!LO:TX:a:t=Soli	!	!	!	!	!	!	!	!	!	!	!	!	!	!	!
4r	.	4r	.	4r	.	4r	.	4r	.	.	.	4e\	.	4cc\	.
4r	.	4r	.	4r	.	4r	.	4r	.	.	.	4e\	-men	4cc\	.
=88	=88	=88	=88	=88	=88	=88	=88	=88	=88	=88	=88	=88	=88	=88	=88
!	!	!LO:TX:t=P:problem=brak 11 taktów	!	!LO:TX:t=P:problem=brak 6 taktów	!	!LO:TX:b:t=6.	!	!LO:TX:b:t=6	!	!	!	!	!	!	!
!	!	!	!	!	!	!LO:N:vis=00	!	!LO:N:vis=00	!	!	!	!	!	!	!
4c\	.	2.ryy	.	2.ryy	.	0.r	.	0.r	.	4c\	a-	8e\L	a-	8cc\L	.
.	.	.	.	.	.	.	.	.	.	.	.	8d\	.	8dd\	.
4G\	.	.	.	.	.	.	.	.	.	4G\	.	8c\	.	8ee\	.
.	.	.	.	.	.	.	.	.	.	.	.	8d\J	.	8ff\J	.
4E\	.	.	.	.	.	.	.	.	.	4E\	.	4e\	.	4gg\	.
!	!	!	!	!	!	!	!	!	!	!	!	!LO:LB:g=original	!	!	!
=89	=89	=89	=89	=89	=89	=89	=89	=89	=89	=89	=89	=89	=89	=89	=89
2.C/	.	2.ryy	.	2.ryy	.	.	.	.	.	2.C/	-men	8c\L	.	8ee\L	.
.	.	.	.	.	.	.	.	.	.	.	.	8d\J	.	8ff\J	.
.	.	.	.	.	.	.	.	.	.	.	.	4c\	.	4ee\	.
.	.	.	.	.	.	.	.	.	.	.	.	4c\	.	4ee\	.
!	!	!	!	!	!	!	!	!	!	!LO:LB:g=original	!	!	!	!	!
=90	=90	=90	=90	=90	=90	=90	=90	=90	=90	=90	=90	=90	=90	=90	=90
4c\	.	2.ryy	.	2.ryy	.	.	.	.	.	4c\	a-	8c\L	.	8ee\L	.
.	.	.	.	.	.	.	.	.	.	.	.	8d\	.	8dd\	.
4G\	.	.	.	.	.	.	.	.	.	4G\	.	8e\	.	8cc\	.
.	.	.	.	.	.	.	.	.	.	.	.	8f\J	.	8dd\J	.
4E\	.	.	.	.	.	.	.	.	.	4E\	.	4g\	.	4ee\	.
!	!	!	!	!	!	!	!	!	!	!	!	!	!	!LO:LB:g=original	!
=91	=91	=91	=91	=91	=91	=91	=91	=91	=91	=91	=91	=91	=91	=91	=91
2.C/	.	2.ryy	.	2.ryy	.	.	.	.	.	4C/	-men	8e\L	.	8cc\L	.
.	.	.	.	.	.	.	.	.	.	.	.	8f\J	.	8dd\J	.
.	.	.	.	.	.	.	.	.	.	4r	.	4e\	.	4cc\	.
.	.	.	.	.	.	.	.	.	.	4r	.	4e\	.	4cc\	.
!LO:LB:g=original	!	!	!	!	!	!	!	!	!	!	!	!	!	!	!
=92	=92	=92	=92	=92	=92	=92	=92	=92	=92	=92	=92	=92	=92	=92	=92
!	!	!	!	!	!	!LO:N:vis=0	!	!LO:N:vis=0	!	!	!	!	!	!	!
2.c\	.	2.ryy	.	2.ryy	.	1.r	.	1.r	.	2.c\	a-	8e\L	.	8cc\L	.
.	.	.	.	.	.	.	.	.	.	.	.	8d\	.	8dd\	.
.	.	.	.	.	.	.	.	.	.	.	.	8c\	.	8ee\	.
.	.	.	.	.	.	.	.	.	.	.	.	8d\J	.	8ff\J	.
.	.	.	.	.	.	.	.	.	.	.	.	4e\	.	4gg\	.
=93	=93	=93	=93	=93	=93	=93	=93	=93	=93	=93	=93	=93	=93	=93	=93
4F\	.	2.ryy	.	2.ryy	.	.	.	.	.	4F\	.	4a\	.	8ff\L	.
.	.	.	.	.	.	.	.	.	.	.	.	.	.	8dd\J	.
4G\	.	.	.	.	.	.	.	.	.	4G\	.	4g\	.	4ee\	.
4GG/	.	.	.	.	.	.	.	.	.	4GG/	.	4f\	.	4dd\	.
=94	=94	=94	=94	=94	=94	=94	=94	=94	=94	=94	=94	=94	=94	=94	=94
!LO:TX:a:t=Tutti	!	!	!	!	!	!	!	!	!	!	!	!	!	!	!
8C\L	.	2.ryy	.	4e\	a-	8e\L	a-	2.cc\	a-	4C/	-men	4e\	-men	4cc\	-men
8D\J	.	.	.	.	.	8f\J	.	.	.	.	.	.	.	.	.
4C\	.	.	.	[2g\	.	4e\	.	.	.	4r	.	4r	.	4r	.
4C\	.	.	.	.	.	4e\	.	.	.	4r	.	4r	.	4r	.
!	!	!	!	!LO:LB:g=original	!	!LO:LB:g=original	!	!	!	!	!	!LO:LB:g=original	!	!	!
=95	=95	=95	=95	=95	=95	=95	=95	=95	=95	=95	=95	=95	=95	=95	=95
!	!	!	!	!	!	!	!	!	!	!LO:TX:b:t=5	!	!LO:TX:b:t=3	!	!LO:TX:b:t=3	!
!	!	!	!	!	!	!	!	!	!	!LO:N:vis=00	!	!LO:N:vis=0	!	!LO:N:vis=0	!
4C\	.	2.ryy	.	4g\]	.	2.e\	.	2.cc\	.	0.r	.	1.r	.	1.r	.
8C\L	.	.	.	4e\	.	.	.	.	.	.	.	.	.	.	.
8D\	.	.	.	.	.	.	.	.	.	.	.	.	.	.	.
8E\	.	.	.	4c\	.	.	.	.	.	.	.	.	.	.	.
8F\J	.	.	.	.	.	.	.	.	.	.	.	.	.	.	.
=96	=96	=96	=96	=96	=96	=96	=96	=96	=96	=96	=96	=96	=96	=96	=96
4G\	.	2.ryy	.	4G\	.	2d\	.	2b\	.	.	.	.	.	.	.
4F\	.	.	.	4d\	.	.	.	.	.	.	.	.	.	.	.
4E\	.	.	.	4g\	.	4e\	.	[4cc\	.	.	.	.	.	.	.
!LO:LB:g=original	!	!	!	!	!	!	!	!	!	!	!	!	!	!	!
=97	=97	=97	=97	=97	=97	=97	=97	=97	=97	=97	=97	=97	=97	=97	=97
4F\	.	2.ryy	.	4f\	.	4a\	.	4cc\]	.	.	.	2.r	.	2.r	.
4G\	.	.	.	2d\	.	2g\	.	2b\	.	.	.	.	.	.	.
4GG/	.	.	.	.	.	.	.	.	.	.	.	.	.	.	.
!	!	!	!	!	!	!	!	!LO:LB:g=original	!	!	!	!	!	!	!
=98	=98	=98	=98	=98	=98	=98	=98	=98	=98	=98	=98	=98	=98	=98	=98
4C\	.	2.ryy	.	4e\	-men	4g\	-men	4cc\	-men	.	.	4r	.	4r	.
!LO:TX:a:t=Soli	!	!	!	!	!	!	!	!	!	!	!	!	!	!	!
4r	.	.	.	4r	.	4r	.	4r	.	.	.	4f\	a-	4cc\	a-
4r	.	.	.	4r	.	4r	.	4r	.	.	.	[4g\	.	[4ee\	.
!	!	!	!	!	!	!	!	!	!	!	!	!	!	!LO:LB:g=original	!
=99	=99	=99	=99	=99	=99	=99	=99	=99	=99	=99	=99	=99	=99	=99	=99
!	!	!LO:TX:b:t=5	!	!LO:TX:b:t=5	!	!LO:TX:b:t=5	!	!LO:TX:b:t=5	!	!	!	!	!	!	!
!	!	!LO:N:vis=00	!	!LO:N:vis=00	!	!LO:N:vis=00	!	!LO:N:vis=00	!	!	!	!	!	!	!
2.G\	6 4	0.r	.	0.r	.	0.r	.	0.r	.	2.r	.	4g\]	.	4ee\]	.
.	5 3	.	.	.	.	.	.	.	.	.	.	4d\	.	4b\	.
.	.	.	.	.	.	.	.	.	.	.	.	4f\	.	4cc\	.
!	!	!	!	!	!	!	!	!	!	!LO:LB:g=original	!	!	!	!	!
=100	=100	=100	=100	=100	=100	=100	=100	=100	=100	=100	=100	=100	=100	=100	=100
2.c\	.	.	.	.	.	.	.	.	.	4r	.	4e\	-men	4b\	men
.	.	.	.	.	.	.	.	.	.	4G\	a-	4r	.	4r	.
.	.	.	.	.	.	.	.	.	.	[4c\	.	4r	.	4r	.
=101	=101	=101	=101	=101	=101	=101	=101	=101	=101	=101	=101	=101	=101	=101	=101
2.C\	-7	.	.	.	.	.	.	.	.	4c\]	.	2.g\	a-	2.ee\	a-
.	.	.	.	.	.	.	.	.	.	4G\	.	.	.	.	.
.	.	.	.	.	.	.	.	.	.	4B-X\	.	.	.	.	.
!LO:LB:g=original	!	!	!	!	!	!	!	!	!	!	!	!	!	!	!
=102	=102	=102	=102	=102	=102	=102	=102	=102	=102	=102	=102	=102	=102	=102	=102
4F\	.	.	.	.	.	.	.	.	.	4A\	-men	2a\	.	4ff\	.
4A\	.	.	.	.	.	.	.	.	.	4r	.	.	.	4cc\	.
4F\	.	.	.	.	.	.	.	.	.	4F\	a-	4cc\	.	4ff\	.
=103	=103	=103	=103	=103	=103	=103	=103	=103	=103	=103	=103	=103	=103	=103	=103
4G\	n3	2.r	.	2.r	.	2.r	.	2.r	.	4G\	.	2b\	.	2dd\	.
4F\	.	.	.	.	.	.	.	.	.	4F\	.	.	.	.	.
4E\	.	.	.	.	.	.	.	.	.	4E\	.	[4cc\	.	4ee\	.
!	!	!	!	!	!	!	!	!	!	!	!	!LO:PB:g=original	!	!	!
=104	=104	=104	=104	=104	=104	=104	=104	=104	=104	=104	=104	=104	=104	=104	=104
!LO:TX:a:t=Tutti	!	!	!	!	!	!	!	!	!	!	!	!	!	!	!
4c\	.	4c\	a-	4e\	a-	4g\	a-	4cc\	a-	4c\	.	8cc\L]	.	8ee\L	.
.	.	.	.	.	.	.	.	.	.	.	.	8dd\J	.	8ff\J	.
4F\	.	4F\	.	4f\	.	4a\	.	2dd\	.	4F\	.	4cc\	.	2dd\	.
4G\	n3	4G\	.	4d\	.	4g\	.	.	.	4G\	.	4b\	.	.	.
!	!	!LO:LB:g=original	!	!LO:LB:g=original	!	!LO:LB:g=original	!	!	!	!LO:PB:g=original	!	!	!	!	!
=105	=105	=105	=105	=105	=105	=105	=105	=105	=105	=105	=105	=105	=105	=105	=105
!LO:TX:a:t=Soli	!	!	!	!	!	!	!	!	!	!	!	!	!	!	!
2C/	.	4C/	-men	4e\	-men	4g\	-men	4cc\	-men	4C/	-men	4cc\	-men	4cc\	.
.	.	4r	.	4r	.	4r	.	4r	.	4r	.	4e\	a-	4cc\	.
4r	.	4r	.	4r	.	4r	.	4r	.	4r	.	[4g\	.	[4ee\	.
!	!	!	!	!	!	!	!	!	!	!	!	!	!	!LO:LB:g=original	!
=106	=106	=106	=106	=106	=106	=106	=106	=106	=106	=106	=106	=106	=106	=106	=106
!	!	!LO:TX:b:t=5.	!	!LO:TX:b:t=5	!	!LO:TX:b:t=5.	!	!LO:TX:b:t=5	!	!LO:TX:b:t=1	!	!	!	!	!
!	!	!LO:N:vis=00	!	!LO:N:vis=00	!	!LO:N:vis=00	!	!LO:N:vis=00	!	!	!	!	!	!	!
2.G\	4	0.r	.	0.r	.	0.r	.	0.r	.	2.r	.	4g\]	.	4ee\]	.
.	n3	.	.	.	.	.	.	.	.	.	.	4d\	.	4b\	.
.	.	.	.	.	.	.	.	.	.	.	.	4f\	.	4dd\	.
!LO:PB:g=original	!	!	!	!	!	!	!	!	!	!	!	!	!	!	!
=107	=107	=107	=107	=107	=107	=107	=107	=107	=107	=107	=107	=107	=107	=107	=107
2.c\	.	.	.	.	.	.	.	.	.	4r	.	4e\	-men	4cc\	-men
.	.	.	.	.	.	.	.	.	.	4G\	a-	4r	.	4r	.
.	.	.	.	.	.	.	.	.	.	[4c\	.	4r	.	4r	.
=108	=108	=108	=108	=108	=108	=108	=108	=108	=108	=108	=108	=108	=108	=108	=108
2.C/	-7	.	.	.	.	.	.	.	.	4c\]	.	2.g\	a-	2.ee\	a-
.	.	.	.	.	.	.	.	.	.	4G\	.	.	.	.	.
.	.	.	.	.	.	.	.	.	.	4B-X\	.	.	.	.	.
!	!	!	!	!	!	!	!	!	!	!	!	!LO:LB:g=original	!	!	!
=109	=109	=109	=109	=109	=109	=109	=109	=109	=109	=109	=109	=109	=109	=109	=109
4F\	.	.	.	.	.	.	.	.	.	4A\	-men	2a\	.	4ff\	.
4A\	.	.	.	.	.	.	.	.	.	4r	.	.	.	4cc\	.
4F\	.	.	.	.	.	.	.	.	.	4F\	a-	4cc\	.	4ff\	.
!	!	!	!	!	!	!	!	!	!	!LO:LB:g=original	!	!	!	!	!
=110	=110	=110	=110	=110	=110	=110	=110	=110	=110	=110	=110	=110	=110	=110	=110
4G\	n3	2.r	.	2.r	.	2.r	.	2.r	.	4G\	.	2b\	.	2dd\	.
4F\	.	.	.	.	.	.	.	.	.	4F\	.	.	.	.	.
4E\	.	.	.	.	.	.	.	.	.	4E\	.	[4cc\	.	[4ee\	.
=111	=111	=111	=111	=111	=111	=111	=111	=111	=111	=111	=111	=111	=111	=111	=111
4c\	.	4c\	a-	4e\	a-	4g\	a-	4ee\	a-	4c\	.	8cc\L]	.	8ee\L]	.
.	.	.	.	.	.	.	.	.	.	.	.	8dd\J	.	8ff\J	.
!LO:TX:a:t=Tutti	!	!	!	!	!	!	!	!	!	!	!	!	!	!	!
4F\	.	4F\	.	4f\	.	4a\	.	2dd\	.	4G\	.	2b\	.	2dd\	.
4G\	n3	4G\	.	4d\	.	4g\	.	.	.	4GG/	.	.	.	.	.
!LO:LB:g=original	!	!LO:LB:g=original	!	!	!	!	!	!LO:LB:g=original	!	!	!	!	!	!	!
=112	=112	=112	=112	=112	=112	=112	=112	=112	=112	=112	=112	=112	=112	=112	=112
2C\	.	2C/	-men	2e\	-men	2g\	-men	2cc\	-men	4C/	-men	4cc\	-men	4cc\	men
.	.	.	.	.	.	.	.	.	.	4r	.	4r	.	4r	.
*	*	*	*ij	*	*	*	*ij	*	*	*	*	*	*	*	*
4G\	.	4G\	a-	4B\	a-	4g\	a-	4dd\	a-	4G\	a-	4g\	a-	4dd\	a-
=113	=113	=113	=113	=113	=113	=113	=113	=113	=113	=113	=113	=113	=113	=113	=113
2c\	.	2c\	-men	2c\	-men	2g\	-men	2ee\	-men	2c\	-men	2g\	-men	2ee\	-men
*	*	*	*Xij	*	*	*	*	*	*ij	*	*	*	*	*	*
4G\	.	4G\	a-	4d\	a-	4g\	a-	4dd\	a-	4G\	a-	4g\	a-	4dd\	a-
!	!	!	!	!	!	!	!	!	!	!	!	!LO:LB:g=original	!	!LO:LB:g=original	!
=114	=114	=114	=114	=114	=114	=114	=114	=114	=114	=114	=114	=114	=114	=114	=114
2C/	.	2C/	-men	2e\	-men	2g\	-men	2cc\	-men	2C/	-men	2g\	-men	2cc\	-men
*	*	*	*ij	*	*	*	*Xij	*	*	*	*	*	*ij	*	*ij
4G\	.	4G\	a-	4B\	a-	4g\	a-	4dd\	a-	4G\	a-	4g\	a-	4dd\	a-
!	!	!	!	!	!	!LO:LB:g=original	!	!	!	!LO:LB:g=original	!	!	!	!	!
=115	=115	=115	=115	=115	=115	=115	=115	=115	=115	=115	=115	=115	=115	=115	=115
2c\	.	2c\	-men	2c\	-men	2g\	-men	2ee\	-men	2c\	-men	2g\	-men	2ee\	-men
*	*	*	*Xij	*	*	*	*	*	*	*	*ij	*	*	*	*
4G\	.	4G\	a-	4d\	a-	4g\	a-	4dd\	a-	4G\	a-	4g\	a-	4dd\	a-
!	!	!	!	!LO:PB:g=original	!	!	!	!	!	!	!	!	!	!	!
=116	=116	=116	=116	=116	=116	=116	=116	=116	=116	=116	=116	=116	=116	=116	=116
2C/	.	2C/	-men	2e\	-men	2g\	-men	2cc\	-men	2C/	-men	2g\	-men	2cc\	-men
*	*	*	*	*	*	*	*ij	*	*Xij	*	*Xij	*	*Xij	*	*Xij
4c\	.	4c\	a-	4e\	a-	4g\	a-	4cc\	a-	4c\	a-	4g\	a-	4cc\	a-
!LO:LB:g=original	!	!LO:LB:g=original	!	!	!	!	!	!	!	!	!	!	!	!	!
=117	=117	=117	=117	=117	=117	=117	=117	=117	=117	=117	=117	=117	=117	=117	=117
!LO:TX:t=P:problem=zbędne powtórzenie taktu w A rip	!	!LO:TX:t=P:problem=zbędne powtórzenie taktu w A rip	!	!LO:TX:t=P:problem=zbędne powtórzenie taktu w A rip	!	!LO:TX:t=P:problem=zbędne powtórzenie taktu nr 114	!	!LO:TX:t=P:problem=zbędne powtórzenie taktu w A rip	!	!LO:TX:t=P:problem=zbędne powtórzenie taktu w A rip	!	!LO:TX:t=P:problem=zbędne powtórzenie taktu w A rip	!	!LO:TX:t=P:problem=zbędne powtórzenie taktu w A rip	!
2.ryy	.	2.ryy	.	2.ryy	.	2g\	-men	2.ryy	.	2.ryy	.	2.ryy	.	2.ryy	.
*	*	*	*	*	*	*	*Xij	*	*	*	*	*	*	*	*
.	.	.	.	.	.	4g\	a-	.	.	.	.	.	.	.	.
=118	=118	=118	=118	=118	=118	=118	=118	=118	=118	=118	=118	=118	=118	=118	=118
!	!	!	!	!	!	!	!	!LO:N:vis=2	!	!	!	!	!	!	!
2.F\	.	2.F\	.	2.f\	.	2.a\	.	2.cc\	.	2.F\	.	2.a\	.	2.cc\	.
=119	=119	=119	=119	=119	=119	=119	=119	=119	=119	=119	=119	=119	=119	=119	=119
!	!	!	!	!	!	!LO:TX:b:t=Finis	!	!	!	!	!	!	!	!	!
2C/	.	2C/	-men	2.e\	-men	2.g\	-men	2.cc\	-men	2.C/	-men	2.g\	-men	2cc\	-men
!	!	!LO:TX:b:t=Fine	!	!	!	!	!	!	!	!	!	!	!	!	!
4r	.	4r	.	.	.	.	.	.	.	.	.	.	.	4r	.
==	==	==	==	==	==	==	==	==	==	==	==	==	==	==	==
*-	*-	*-	*-	*-	*-	*-	*-	*-	*-	*-	*-	*-	*-	*-	*-
!!!system-decoration: [g1][g2]s8
!!!RDF**kern: | = vertical stroke
!!!ENC: Marta Lawrence
!!!END: 2021-02-15
!!!ENC: Andrzej Kubiczek
!!!END: 2021-02-04
